X:1
T:Carol of the Birds
M:6/8
L:1/8
K:C
 CCD E2 F| GAG F2 E| DDE F2 G| ABA G2 F| EEF G2 E| DDE F2 D| CCD EDC|\
 DEF GAB| c3 G2 E| c3 A2 E| cAF E2 D| C6| z6|
